svg/u264e.svg

<svg viewBox="0 0 128 128" xmlns="http://www.w3.org/2000/svg">
  <circle cx="64" cy="64" r="60" fill="#388E3C"/>
  <circle cx="60.1" cy="63.1" r="56.1" fill="#66BB6A"/>
  <path d="M24,29.7c4.5-7.1,14.1-13,24.1-14.8c2.5-0.4,5-0.6,7.1,0.2 c1.6,0.6,2.9,2.1,2,3.8c-0.7,1.4-2.6,2-4.1,2.5c-9.3,3-17.9,6.4-23.1,14.3c-2,3-4.9,14.4-8.6,12.3C17.5,45.7,18.3,38.5,24,29.7z" opacity="0.3" fill="#FFFFFF" enable-background="new "/>
  <g>
    <path d="M95.5,94.2h-63c-2.5,0-4.5-2-4.5-4.5s2-4.5,4.5-4.5h63c2.5,0,4.5,2,4.5,4.5S98,94.2,95.5,94.2z" fill="#FAFAFA"/>
    <path d="M95.4,69.1h-8.2c3.5-5.2,5.1-11.5,4.6-17.8C90.7,37.7,79.6,26.8,66,25.8c-0.7,0-1.3-0.1-2-0.1 c-7.5,0-14.5,2.9-19.7,8.2c-5.3,5.3-8.2,12.3-8.2,19.7c0,5.5,1.6,10.8,4.6,15.4H32c-2.5,0-4.6,2.1-4.6,4.6s2.1,4.6,4.6,4.6h20.3 c1.6,0,2.9-1.3,2.9-2.9v-3.4c0-1-0.5-1.9-1.4-2.5c-0.1-0.1-0.2-0.1-0.2-0.2c-5.9-3.9-9.1-10.8-8.3-17.9c1-8.5,7.9-15.4,16.5-16.3 c0.7-0.1,1.5-0.1,2.2-0.1c10.3,0,18.8,8.4,18.8,18.8c0,6.3-3.1,12.1-8.4,15.6c-0.1,0.1-0.2,0.1-0.2,0.2C73.4,70,72.8,71,72.8,72 v3.4c0,1.6,1.3,2.9,2.9,2.9h19.8c2.5,0,4.6-2.1,4.6-4.6C100,71.1,97.9,69.1,95.4,69.1z" fill="#FAFAFA"/>
  </g>
</svg>

<svg viewBox="0 0 128 128" xmlns="http://www.w3.org/2000/svg">
  <defs/>
  <path d="M124,64 A60 60 0 1 1 4,64 A60 60 0 1 1 124,64 Z" fill="#388E3C"/>
  <path d="M116.2,63.1 A56.1 56.1 0 1 1 4,63.1 A56.1 56.1 0 1 1 116.2,63.1 Z" fill="#66BB6A"/>
  <path d="M24,29.7 C28.5,22.6 38.1,16.7 48.1,14.9 C50.6,14.5 53.1,14.3 55.2,15.1 C56.8,15.7 58.1,17.2 57.2,18.9 C56.5,20.3 54.6,20.9 53.1,21.4 C43.8,24.4 35.2,27.8 30,35.7 C28,38.7 25.1,50.1 21.4,48 C17.5,45.7 18.3,38.5 24,29.7 Z" fill="#FFFFFF" opacity="0.3"/>
  <path d="M95.5,94.2 L32.5,94.2 C30,94.2 28,92.2 28,89.7 C28,87.2 30,85.2 32.5,85.2 L95.5,85.2 C98,85.2 100,87.2 100,89.7 C100,92.2 98,94.2 95.5,94.2 Z" fill="#FAFAFA"/>
  <path d="M95.4,69.1 L87.2,69.1 C90.7,63.9 92.3,57.6 91.8,51.3 C90.7,37.7 79.6,26.8 66,25.8 C65.3,25.8 64.7,25.7 64,25.7 C56.5,25.7 49.5,28.6 44.3,33.9 C39,39.2 36.1,46.2 36.1,53.6 C36.1,59.1 37.7,64.4 40.7,69 L32,69 C29.5,69 27.4,71.1 27.4,73.6 C27.4,76.1 29.5,78.2 32,78.2 L52.3,78.2 C53.9,78.2 55.2,76.9 55.2,75.3 L55.2,71.9 C55.2,70.9 54.7,70 53.8,69.4 C53.7,69.3 53.6,69.3 53.6,69.2 C47.7,65.3 44.5,58.4 45.3,51.3 C46.3,42.8 53.2,35.9 61.8,35 C62.5,34.9 63.3,34.9 64,34.9 C74.3,34.9 82.8,43.3 82.8,53.7 C82.8,60 79.7,65.8 74.4,69.3 C74.3,69.4 74.2,69.4 74.2,69.5 C73.4,70 72.8,71 72.8,72 L72.8,75.4 C72.8,77 74.1,78.3 75.7,78.3 L95.5,78.3 C98,78.3 100.1,76.2 100.1,73.7 C100,71.1 97.9,69.1 95.4,69.1 Z" fill="#FAFAFA"/>
</svg>
